X:2651
L:1/8
M:4/4
K:G
 GA | B2 G2 B4 | d2 B2 d4 | c2 Aedc | BcBAGA | B2 G2 B4 | d2 B2 d4 | cBAedc |1 B2 z2 :|2 B2 z2 || 
 GB | d2 B2 d4 | c2 A2 c4 | B2 G2 B4 | A2 F2 A4 | B2 G2 B4 | d2 B2 d4 | cBAedc | B4 :|

